X:8929
T:LA FOUGERE
Z: Yves BELOTTEAU
M:4/4
L:1/8
Q:1/4=120
K:G
|GAB3/2 z/2 G3/2 z/2 AA|GAB3/2 z/2 G3/2 z/2 AA|
 GAB3/2 z/2 G3/2 z/2 A3/2 z/2 |GAB3/2 z/2 G3/2 z/2 AA|
 GAB3/2 z/2 G3/2 z/2 AA|GAB3/2 z/2 G3/2 z/2 A3/2 z/2 |
 B3/2 z/2 BA Bcd3/2 z/2 |B3/2 z/2 BA Bcd3/2 z/2 |
|:BBBd cBA3/2 z/2 |ABcB A3/2 z/2 G3/2 z/2:|


